outputs/icons/action/unlock_round.svg

<svg xmlns="http://www.w3.org/2000/svg" width="1200" height="1200" fill="none"><g clip-path="url(#a)"><path fill="#000" d="M399.948 403.961c0-110.132 87.505-202.574 197.447-203.949 31.47-.447 62.6 6.558 90.84 20.441a199.5 199.5 0 0 1 71.67 59.438 49.26 49.26 0 0 0 39.255 20.064h2a49.4 49.4 0 0 0 25.82-7.217 49.4 49.4 0 0 0 18.245-19.644 49.4 49.4 0 0 0 5.285-26.284 49.36 49.36 0 0 0-9.225-25.172 299.5 299.5 0 0 0-242.89-121.632c-165.882.875-298.389 139.071-298.389 304.893V549.97h-25.002c-19.892 0-38.97 7.9-53.036 21.965A75.02 75.02 0 0 0 200 624.975v400.02a75 75 0 0 0 21.968 53.035 75 75 0 0 0 53.036 21.97H925.04a74.98 74.98 0 0 0 53.035-21.97 74.98 74.98 0 0 0 21.97-53.035v-400.02a75 75 0 0 0-75.005-75.005H400.012z"/></g><defs><clipPath id="a"><path fill="#fff" d="M0 0h1200v1200H0z"/></clipPath></defs></svg>

<svg width="1200" height="1200" viewBox="0 0 1200 1200" fill="none" xmlns="http://www.w3.org/2000/svg"><g clip-path="url(#clip0_755_1951)"><path d="M399.948 403.961C399.948 293.829 487.453 201.387 597.395 200.012C628.865 199.565 659.995 206.57 688.235 220.453C716.48 234.335 741.04 254.703 759.905 279.891C764.44 286.055 770.35 291.077 777.165 294.56C783.975 298.042 791.505 299.889 799.16 299.955H801.16C810.265 299.977 819.205 297.479 826.98 292.738C834.755 287.998 841.07 281.199 845.225 273.094C849.375 264.988 851.205 255.891 850.51 246.81C849.815 237.73 846.625 229.018 841.285 221.638C813.25 183.657 776.635 152.841 734.425 131.703C692.215 110.566 645.605 99.704 598.395 100.006C432.513 100.881 300.006 239.077 300.006 404.899V549.97H275.004C255.112 549.97 236.034 557.87 221.968 571.935C207.902 586.005 200 605.08 200 624.975V1024.995C200 1044.89 207.902 1063.965 221.968 1078.03C236.034 1092.1 255.112 1100 275.004 1100H925.04C944.935 1100 964.01 1092.1 978.075 1078.03C992.145 1063.965 1000.045 1044.89 1000.045 1024.995V624.975C1000.045 605.08 992.145 586.005 978.075 571.935C964.01 557.87 944.935 549.97 925.04 549.97H400.012L399.948 403.961Z" fill="black"/></g><defs><clipPath id="clip0_755_1951"><path width="24" fill="white" d="M0 0H1200V1200H0V0z"/></clipPath></defs></svg>
